site/img/logos/payvision.svg

<?xml version="1.0" encoding="UTF-8"?>
<svg width="400px" height="360px" viewBox="0 0 400 360" version="1.1" xmlns="http://www.w3.org/2000/svg" xmlns:xlink="http://www.w3.org/1999/xlink">
    <title>logos/payvision</title>
    <g id="logos/payvision" stroke="none" stroke-width="1" fill="none" fill-rule="evenodd">
        <path d="M353.853945,215.28749 L368.244552,258.433662 L382.664313,215.28749 L399.569587,215.28749 L385.136544,258.473119 L351.383778,258.473119 L336.980039,215.296528 L315.109253,280.97909 L298.203979,280.97909 L320.078479,215.28749 L353.853945,215.28749 Z M15.5090813,226.928438 C19.9541449,226.928438 23.5716919,228.439017 26.4298224,231.524147 C29.2879529,234.609277 30.6850317,238.449696 30.6850317,243.109378 C30.6850317,247.769059 29.2879529,251.609478 26.4298224,254.694608 C23.5716919,257.717829 19.9541449,259.228408 15.5090813,259.228408 C12.261514,259.228408 9.43033974,258.292003 7.06921814,256.474704 L6.8088084,256.26916 L6.8088084,270.75173 L-0.430413,270.75173 L-0.430413,227.683728 L6.68086321,227.683728 L6.68086321,230.820449 C8.83394087,228.563415 11.7016499,227.026824 15.1695452,226.932991 L15.5090813,226.928438 Z M71.8359194,227.683728 L80.33602,252.33175 L89.0651839,227.683728 L96.8223767,227.683728 L81.5865814,270.698075 L73.8293881,270.698075 L78.1114247,258.609318 L74.743577,258.609318 L64.0787264,227.683728 L71.8359194,227.683728 Z M47.9308052,226.928438 C55.9012067,226.930477 61.0787359,230.863075 61.2038318,238.302566 L61.2061505,238.579705 L61.2061505,258.539155 L54.0948743,258.539155 L54.0948743,256.145342 C51.7443973,258.223419 48.7603853,259.230472 45.2047473,259.230472 C42.2207352,259.230472 39.7443767,258.41121 37.711699,256.710777 C35.7429941,255.010344 34.727687,252.680503 34.727687,249.847137 C34.727687,243.200069 39.72175,239.945347 47.175295,239.860847 L47.4747425,239.859157 L53.9648655,239.859157 L53.9648655,238.513669 C53.9648655,235.428539 51.3626254,233.414434 47.8688962,233.414434 C44.7291738,233.414434 42.8255235,234.759172 41.3751759,236.513464 L41.2405099,236.6791 L35.8626847,233.009962 C38.1359044,229.176809 42.6587277,227.019481 47.613945,226.931256 L47.9308052,226.928438 Z M159.034694,226.928438 C163.692925,226.928438 167.712331,228.538198 171.216465,231.814741 L171.507286,232.091646 L166.587588,237.00309 C164.563164,234.421487 162.002196,233.098698 158.834522,233.098698 C156.069255,233.098698 154.317231,234.419423 154.317231,235.993974 C154.317231,237.39269 155.32336,238.322006 157.333763,238.837647 L157.553006,238.891314 L162.743041,240.024248 C169.486991,241.472917 172.856901,244.683929 172.856901,249.659346 C172.856901,255.262107 168.137375,259.230472 159.777601,259.230472 C154.176262,259.230472 149.667928,257.304888 146.320118,253.509664 L146.093657,253.248002 L150.947319,248.588321 C153.374151,251.547569 156.541826,253.058148 160.384309,253.058148 C163.956456,253.058148 165.440208,251.671387 165.440208,249.909046 C165.440208,248.626056 164.485984,247.697492 161.650577,246.953096 L161.395489,246.887888 L157.012335,245.880836 C150.338548,244.43423 146.968637,241.223218 146.968637,236.121919 C146.968637,230.517095 151.956436,226.928438 159.034694,226.928438 Z M207.257649,226.814939 C216.184921,226.814939 223.420015,234.058287 223.420015,242.993814 C223.420015,251.929341 216.182857,259.17269 207.257649,259.17269 C198.330376,259.17269 191.095282,251.929341 191.095282,242.993814 C191.095282,234.058287 198.33244,226.814939 207.257649,226.814939 Z M104.581634,227.683728 L112.926962,251.883941 L121.420872,227.694046 L129.176001,227.74151 L118.321296,258.609318 L107.489291,258.609318 L96.8244409,227.683728 L104.581634,227.683728 Z M243.678691,226.928438 C251.271207,226.930478 255.887033,231.85 255.99459,240.290856 L255.996512,240.59381 L255.996512,258.539155 L248.75729,258.539155 L248.75729,240.59381 C248.75729,236.249865 246.472849,233.416498 242.599412,233.416498 C238.295182,233.416498 235.829438,236.394327 235.744246,241.216933 L235.741962,241.477045 L235.741962,258.539155 L228.502741,258.539155 L228.502741,227.685791 L235.614017,227.685791 L235.614017,230.570749 C237.5212,228.435664 240.082978,227.019083 243.359387,226.932632 L243.678691,226.928438 Z M185.616338,227.683728 L185.616338,258.537091 L178.377117,258.537091 L178.377117,227.683728 L185.616338,227.683728 Z M140.705513,227.683728 L140.705513,258.537091 L133.466292,258.537091 L133.466292,227.683728 L140.705513,227.683728 Z M291.259857,215.28749 L305.6929,258.473119 L288.787625,258.473119 L274.354583,215.28749 L291.259857,215.28749 Z M14.9993642,233.412371 C9.66487521,233.412371 6.68086321,237.632498 6.68086321,243.17335 C6.68086321,248.714202 9.66487521,252.932267 14.9993642,252.932267 C17.5106571,252.932267 19.4885063,252.053428 20.9366125,250.2976 L21.0953334,250.0989 C22.556385,248.208613 23.3178652,245.878772 23.3178652,243.171287 C23.3178652,240.463801 22.556385,238.133961 21.0953334,236.245737 C19.6342819,234.357514 17.6016043,233.412371 14.9993642,233.412371 Z M53.9648655,245.624945 L47.4066427,245.624945 C44.0883223,245.647645 41.9627812,247.030279 41.9627812,249.465365 C41.9627812,251.543442 43.6136869,252.932267 46.6616715,252.932267 C49.5351645,252.932267 51.9379117,252.115159 53.7556638,250.480943 L53.9628019,250.288754 L53.9648655,250.288754 L53.9648655,245.624945 Z M207.257649,233.94066 C202.263659,233.94066 198.214813,237.993634 198.214813,242.993814 C198.214813,247.993995 202.263659,252.046968 207.257649,252.046968 C212.251638,252.046968 216.300484,247.993995 216.300484,242.993814 C216.300484,237.993634 212.251638,233.94066 207.257649,233.94066 Z M133.462164,215.188435 L140.68694,215.223517 L140.719959,222.454484 L133.497247,222.419402 L133.462164,215.188435 Z M178.313145,215.188435 L185.535857,215.223517 L185.570939,222.45242 L178.348227,222.419402 L178.313145,215.188435 Z" id="Shape" fill="#FFFFFF" fill-rule="nonzero"></path>
    </g>
</svg>

<svg width="400" height="360" viewBox="0 0 400 360" xmlns="http://www.w3.org/2000/svg"><path d="M353.854 215.287l14.39 43.147 14.42-43.147h16.906l-14.433 43.186h-33.753l-14.404-43.176-21.87 65.682h-16.906l21.874-65.692h33.776zM15.509 226.928c4.445 0 8.063 1.511 10.92 4.596 2.859 3.085 4.256 6.926 4.256 11.585 0 4.66-1.397 8.5-4.255 11.586-2.858 3.023-6.476 4.533-10.92 4.533-3.248 0-6.08-.936-8.44-2.753l-.261-.206v14.483h-7.24v-43.068h7.112v3.136c2.153-2.257 5.02-3.793 8.489-3.887l.34-.005zm56.327.756l8.5 24.648 8.73-24.648h7.756l-15.235 43.014h-7.758l4.282-12.089h-3.367l-10.665-30.925h7.757zm-23.905-.756c7.97.002 13.148 3.935 13.273 11.375l.002.277v19.96h-7.111v-2.395c-2.35 2.078-5.335 3.085-8.89 3.085-2.984 0-5.46-.819-7.493-2.52-1.969-1.7-2.984-4.03-2.984-6.863 0-6.647 4.994-9.902 12.447-9.986l.3-.002h6.49v-1.345c0-3.085-2.602-5.1-6.096-5.1-3.14 0-5.043 1.345-6.494 3.1l-.134.165-5.378-3.669c2.273-3.833 6.796-5.99 11.75-6.079l.318-.003zm111.104 0c4.658 0 8.677 1.61 12.181 4.887l.291.277-4.92 4.911c-2.024-2.582-4.585-3.904-7.752-3.904-2.766 0-4.518 1.32-4.518 2.895 0 1.399 1.006 2.328 3.017 2.844l.219.053 5.19 1.133c6.744 1.449 10.114 4.66 10.114 9.635 0 5.603-4.72 9.571-13.08 9.571-5.6 0-10.11-1.925-13.457-5.72l-.226-.262 4.853-4.66c2.427 2.96 5.595 4.47 9.437 4.47 3.572 0 5.056-1.387 5.056-3.149 0-1.283-.954-2.212-3.79-2.956l-.255-.065-4.383-1.007c-6.673-1.447-10.043-4.658-10.043-9.76 0-5.604 4.987-9.193 12.066-9.193zm48.223-.113c8.927 0 16.162 7.243 16.162 16.179 0 8.935-7.237 16.179-16.162 16.179-8.928 0-16.163-7.244-16.163-16.18 0-8.935 7.237-16.178 16.163-16.178zm-102.676.869l8.345 24.2 8.494-24.19 7.755.048-10.855 30.867H107.49l-10.665-30.925h7.758zm139.097-.756c7.592.002 12.208 4.922 12.316 13.363l.002.303v17.945h-7.24v-17.945c0-4.344-2.284-7.178-6.158-7.178-4.304 0-6.77 2.978-6.855 7.8l-.002.261v17.062h-7.24v-30.853h7.112v2.885c1.907-2.135 4.469-3.552 7.745-3.638l.32-.005zm-58.063.756v30.853h-7.239v-30.853h7.24zm-44.91 0v30.853h-7.24v-30.853h7.24zm150.554-12.397l14.433 43.186h-16.905l-14.433-43.186h16.905zM15 233.412c-5.335 0-8.32 4.22-8.32 9.761 0 5.541 2.985 9.76 8.32 9.76 2.51 0 4.489-.88 5.937-2.635l.158-.2c1.461-1.89 2.223-4.22 2.223-6.927s-.762-5.037-2.223-6.925c-1.46-1.888-3.493-2.834-6.096-2.834zm38.965 12.213h-6.558c-3.319.023-5.444 1.405-5.444 3.84 0 2.078 1.65 3.467 4.699 3.467 2.873 0 5.276-.817 7.094-2.451l.207-.192h.002v-4.664zm153.293-11.684c-4.994 0-9.043 4.053-9.043 9.053 0 5 4.049 9.053 9.043 9.053 4.994 0 9.042-4.053 9.042-9.053 0-5-4.048-9.053-9.042-9.053zm-73.796-18.753l7.225.036.033 7.23-7.223-.035-.035-7.23zm44.851 0l7.223.036.035 7.228-7.223-.033-.035-7.23z" fill="#FFF"/></svg>
